X: 20
T: Frieze Breeches, The
Z: John E Roche
S: https://thesession.org/tunes/34#setting46828
R: jig
M: 6/8
L: 1/8
K: Dmaj
|:DED F2G|A2B cAG|ABA A2G|F2D GED|
DED F2G|A2B cAG|F2D EFE|D3 D3:|
|:d2e f2d|e2d cAG|ABA A2G|F2D GED|
d2e f2d|e2d cAG|F2D EFE|D3 D3:|

